X: 7188
T: Ciel D'automne
R: reel
M: 4/4
K: Dmajor
|:A/c/d/e/|fedc d2 AF|G2 A>B A2-A/G/F/E/|D2 d>c B3 (3A/B/A/|GFGB A2 c/d/e/f/|
g3 (3f/g/f/ ee d>e|fdAF G3 A/B/|Ad d>c ef g>e|eddc d2:|
|:dc/A/|B3 c/d/ AF F>D|BG d>c A4|B3 c/d/ AF d>c|ef g>f e3f|
g3 (3f/g/f/ ee d>e|fdAF G3 A/B/|Ad d>c ef g>e|eddc d2:|

